X:157
T:Bonny Annie. RH.157
R:reel
S:Rev.R.Harrison’s MS,c1815,Cumbria
O:England
A:Temple Sowerby,Cumbria
Z:vmp.Simon Wilson. Review PJH, 2008.
M:C|
L:1/8
Q:1/2=70
K:G
c|A/A/A A>G EGGc|A/A/A AB c>dec|\
c/B/A/B/ cG E>GG>c|A/A/A eg aAA:|!
g|e/f/g cg ecgc|BGdG Bcdg|ecgc egca|gede cAAg|!
agea gced|cAGc EcGc|AcGA cdea|gede cAA|]

